X:4
T:Arthur Le Bride - Fone
%%VWML:SBG-1-2-785-0
F:http://www.vwml.org/record/SBG/1/2/785
Z:Original Sibelius transcriptions by M. & S. Graebe
M:6/8
I:linebreak $
K:G
V:1 treble nm="P1"
V:1
 D2 | GAB Bcd | =fde d2 e | dBA GFA | GEF D2 D | GGD EDB, |$ DED G>GB | ded dBG | A3 G3/2 G/B | %9
 ded dBG | A3 G3 |] %11

